images/paid-advertising.svg

<svg width="245" height="153" viewBox="0 0 245 153" fill="none" xmlns="http://www.w3.org/2000/svg">
<g filter="url(#filter0_d_84_63020)">
<path d="M228.962 13.1865V125.308C228.962 128.711 226.142 131.495 222.666 131.495H22.2775C18.8204 131.495 16 128.711 16 125.308V13.1865C16 9.78393 18.8204 7 22.2775 7H222.666C226.142 7 228.962 9.78393 228.962 13.1865Z" fill="#3E3789"/>
<path d="M231 14.2847V22H14V14.2847C14 10.2655 16.8738 7 20.3966 7H224.585C228.126 7 231 10.2655 231 14.2847Z" fill="white"/>
<path d="M50.9354 18.2267C52.9352 18.2267 54.5563 16.6056 54.5563 14.6058C54.5563 12.606 52.9352 10.9849 50.9354 10.9849C48.9356 10.9849 47.3145 12.606 47.3145 14.6058C47.3145 16.6056 48.9356 18.2267 50.9354 18.2267Z" fill="#FFB700"/>
<path d="M39.3446 18.2267C41.3444 18.2267 42.9655 16.6056 42.9655 14.6058C42.9655 12.606 41.3444 10.9849 39.3446 10.9849C37.3448 10.9849 35.7236 12.606 35.7236 14.6058C35.7236 16.6056 37.3448 18.2267 39.3446 18.2267Z" fill="#E2209E"/>
<path d="M27.7723 18.2267C29.7721 18.2267 31.3933 16.6056 31.3933 14.6058C31.3933 12.606 29.7721 10.9849 27.7723 10.9849C25.7725 10.9849 24.1514 12.606 24.1514 14.6058C24.1514 16.6056 25.7725 18.2267 27.7723 18.2267Z" fill="#5E1DBB"/>
<path d="M81 50H29V98H81V50Z" fill="#B10073"/>
<path d="M227.277 131H191.723C190.773 131 190 130.518 190 129.925V104.075C190 103.482 190.773 103 191.723 103H227.277C228.227 103 229 103.482 229 104.075V129.925C228.991 130.518 228.227 131 227.277 131Z" fill="#5E1DBB"/>
<path d="M211 96H198V112H211V96Z" fill="#FFB700"/>
<path d="M220.788 107.312H205.842V122.258H220.788V107.312Z" fill="#9364ED"/>
<path d="M34.485 82V75.836H37.682C41.063 75.836 42.995 74.042 42.995 70.684C42.995 67.717 41.546 65.762 37.797 65.762H31.863V82H34.485ZM34.485 68.154H37.268C39.545 68.154 40.281 68.821 40.281 70.73C40.281 72.892 39.223 73.467 37.245 73.467H34.485V68.154ZM50.1144 82.253C51.9774 82.253 53.3114 81.402 54.0474 80.137V82H56.5314V70.454H54.0474V72.317C53.3114 71.006 51.9774 70.201 50.1374 70.201C46.9404 70.201 44.7324 72.662 44.7324 76.227C44.7324 79.792 46.9634 82.253 50.1144 82.253ZM50.6894 79.999C48.6654 79.999 47.2624 78.458 47.2624 76.227C47.2624 73.996 48.6654 72.432 50.6894 72.432C52.6214 72.432 54.0704 73.95 54.0704 76.227C54.0704 78.504 52.6214 79.999 50.6894 79.999ZM60.9758 68.453C61.8728 68.453 62.5398 67.763 62.5398 66.889C62.5398 66.038 61.8728 65.394 60.9758 65.394C60.0558 65.394 59.3888 66.038 59.3888 66.889C59.3888 67.763 60.0558 68.453 60.9758 68.453ZM62.2178 82V70.454H59.7108V82H62.2178ZM70.1496 82.253C72.0126 82.253 73.3466 81.402 74.0826 80.137V82H76.5666V65.141H74.0826V72.317C73.3466 71.006 72.0126 70.201 70.1726 70.201C66.9756 70.201 64.7676 72.662 64.7676 76.227C64.7676 79.792 66.9986 82.253 70.1496 82.253ZM70.7246 79.999C68.7006 79.999 67.2976 78.458 67.2976 76.227C67.2976 73.996 68.7006 72.432 70.7246 72.432C72.6566 72.432 74.1056 73.95 74.1056 76.227C74.1056 78.504 72.6566 79.999 70.7246 79.999ZM98.2958 82L92.3848 65.762H89.3718L83.4608 82H86.2438L87.5548 78.297H94.2018L95.5128 82H98.2958ZM93.3738 75.905H88.3828L90.8668 68.614L93.3738 75.905ZM104.694 82.253C106.557 82.253 107.891 81.402 108.627 80.137V82H111.111V65.141H108.627V72.317C107.891 71.006 106.557 70.201 104.717 70.201C101.52 70.201 99.3125 72.662 99.3125 76.227C99.3125 79.792 101.543 82.253 104.694 82.253ZM105.269 79.999C103.245 79.999 101.842 78.458 101.842 76.227C101.842 73.996 103.245 72.432 105.269 72.432C107.201 72.432 108.65 73.95 108.65 76.227C108.65 78.504 107.201 79.999 105.269 79.999ZM118.799 79.378L115.625 70.454H112.865L117.465 82H120.202L124.618 70.454H121.881L118.799 79.378ZM137.097 76.227C137.097 72.616 134.774 70.201 131.347 70.201C127.897 70.201 125.367 72.662 125.367 76.227C125.367 79.769 127.782 82.253 131.6 82.253C133.808 82.253 135.855 81.425 136.844 79.654L134.774 78.527C134.061 79.608 132.957 80.068 131.646 80.068C129.53 80.068 128.196 78.895 127.92 77.147H137.028C137.051 76.848 137.097 76.526 137.097 76.227ZM131.393 72.317C133.164 72.317 134.36 73.444 134.659 75.215H127.92C128.242 73.467 129.599 72.317 131.393 72.317ZM141.95 82V76.549C141.95 74.387 143.146 72.731 145.124 72.731C145.515 72.731 145.814 72.754 146.182 72.8L146.205 70.224C146.044 70.201 145.86 70.201 145.699 70.201C144.066 70.201 142.686 70.914 141.927 72.501V70.454H139.466V82H141.95ZM154.62 79.746C154.252 79.884 153.723 79.999 153.125 79.999C151.975 79.999 151.584 79.47 151.584 78.113V72.639H154.62V70.454H151.584V67.418H149.1V70.454H147.099V72.639H149.1V78.412C149.1 80.551 149.859 82.207 152.665 82.207C153.332 82.207 154.275 82.092 154.643 81.908L154.62 79.746ZM158.321 68.453C159.218 68.453 159.885 67.763 159.885 66.889C159.885 66.038 159.218 65.394 158.321 65.394C157.401 65.394 156.734 66.038 156.734 66.889C156.734 67.763 157.401 68.453 158.321 68.453ZM159.563 82V70.454H157.056V82H159.563ZM166.989 82.253C169.979 82.253 171.543 81.011 171.543 78.573C171.543 76.25 169.956 75.537 167.288 75.1C165.586 74.801 164.827 74.433 164.827 73.674C164.827 72.731 165.632 72.317 166.851 72.317C168.139 72.317 168.806 72.777 169.289 73.605L171.336 72.478C170.577 71.075 168.99 70.201 166.782 70.201C164.39 70.201 162.366 71.282 162.366 73.766C162.366 75.882 164.022 76.71 166.46 77.147C168.53 77.492 169.036 77.883 169.036 78.688C169.036 79.723 168.415 80.16 167.035 80.16C165.356 80.16 164.39 79.332 163.861 78.343L161.814 79.401C162.573 81.149 164.367 82.253 166.989 82.253ZM175.145 68.453C176.042 68.453 176.709 67.763 176.709 66.889C176.709 66.038 176.042 65.394 175.145 65.394C174.225 65.394 173.558 66.038 173.558 66.889C173.558 67.763 174.225 68.453 175.145 68.453ZM176.387 82V70.454H173.88V82H176.387ZM182.111 82V75.882C182.111 73.927 183.284 72.409 185.147 72.409C186.826 72.409 187.677 73.375 187.677 75.537V82H190.138V75.123C190.138 71.857 188.597 70.201 185.906 70.201C184.296 70.201 182.87 70.845 182.088 72.271V70.454H179.627V82H182.111ZM198.348 86.761C201.959 86.761 204.167 84.645 204.167 80.988V70.454H201.683V72.225C200.947 70.96 199.59 70.201 197.773 70.201C194.576 70.201 192.368 72.616 192.368 76.066C192.368 79.539 194.599 81.977 197.75 81.977C199.613 81.977 200.947 81.149 201.683 79.93V81.241C201.683 83.472 200.487 84.599 198.279 84.599C196.784 84.599 195.887 84.093 195.243 83.035L193.058 84.07C194.07 85.933 195.979 86.761 198.348 86.761ZM198.325 79.769C196.301 79.769 194.898 78.251 194.898 76.089C194.898 73.927 196.301 72.432 198.325 72.432C200.257 72.432 201.706 73.881 201.706 76.089C201.706 78.297 200.257 79.769 198.325 79.769ZM208.612 82.161C209.601 82.161 210.337 81.448 210.337 80.459C210.337 79.516 209.601 78.826 208.612 78.826C207.646 78.826 206.91 79.516 206.91 80.459C206.91 81.448 207.646 82.161 208.612 82.161Z" fill="white"/>
</g>
<path d="M76.584 118.68V93.5222L95.3177 110.329L88.1823 110.411L87.4236 110.419L87.7309 111.113L90.7353 117.895L85.2223 120.34L82.2491 113.628L81.9426 112.936L81.4264 113.489L76.584 118.68Z" fill="white" stroke="#FD521B"/>
<path d="M74.5355 90.237L72.7154 86.2656L73.7639 85.8189L75.5839 89.7904L74.5355 90.237Z" fill="white" stroke="#FD521B"/>
<path d="M80.0126 90.2452L78.9208 89.8316L80.5656 85.6426L81.6575 86.0563L80.0126 90.2452Z" fill="white" stroke="#FD521B"/>
<path d="M82.9261 93.5911L82.4625 92.5435L86.5694 90.708L87.0328 91.7556L82.9261 93.5911Z" fill="white" stroke="#FD521B"/>
<path d="M71.8329 93.7793L67.6531 92.1996L68.0549 91.1927L72.2347 92.7723L71.8329 93.7793Z" fill="white" stroke="#FD521B"/>
<path d="M68.2807 99.9934L67.8345 99.0083L71.9431 97.259L72.3893 98.2441L68.2807 99.9934Z" fill="white" stroke="#FD521B"/>
<defs>
<filter id="filter0_d_84_63020" x="0" y="0" width="245" height="152.495" filterUnits="userSpaceOnUse" color-interpolation-filters="sRGB">
<feFlood flood-opacity="0" result="BackgroundImageFix"/>
<feColorMatrix in="SourceAlpha" type="matrix" values="0 0 0 0 0 0 0 0 0 0 0 0 0 0 0 0 0 0 127 0" result="hardAlpha"/>
<feOffset dy="7"/>
<feGaussianBlur stdDeviation="7"/>
<feComposite in2="hardAlpha" operator="out"/>
<feColorMatrix type="matrix" values="0 0 0 0 0.243137 0 0 0 0 0.215686 0 0 0 0 0.537255 0 0 0 0.52 0"/>
<feBlend mode="normal" in2="BackgroundImageFix" result="effect1_dropShadow_84_63020"/>
<feBlend mode="normal" in="SourceGraphic" in2="effect1_dropShadow_84_63020" result="shape"/>
</filter>
</defs>
</svg>

<svg xmlns="http://www.w3.org/2000/svg" xmlns:xlink="http://www.w3.org/1999/xlink" width="259" height="166.49" viewBox="0 0 259 166.49">
  <style>
    @keyframes pulse {
        0% {
          -webkit-transform: scale(1);
          transform: scale(1);
        }
        70% {
          -webkit-transform: scale(1.4);
          transform: scale(1.4);
        }
        100% {
          -webkit-transform: scale(1);
          transform: scale(1);
        }
    } 

    @-webkit-keyframes box-1 {
        from { -webkit-transform: translate(0,  0px); transform: translate(0,  0px); }
        65%  { -webkit-transform: translate(4px, 6px); transform: translate(4px, 6px); }
        to   { -webkit-transform: translate(0, 0px); transform: translate(0, 0px); }    
    }

    @-webkit-keyframes box-2 {
        from { -webkit-transform: translate(0,  0px); transform: translate(0,  0px); }
        65%  { -webkit-transform: translate(-2px, -4px); transform: translate(-2px, -4px); }
        to   { -webkit-transform: translate(0, 0px); transform: translate(0, 0px); }    
    }

    @-webkit-keyframes cursor_moving {
        from { -webkit-transform: translate(0,  0px); transform: translate(0,  0px); }
        65%  { -webkit-transform: translate(-20px, -15px); transform: translate(-20px, -15px); }
        to   { -webkit-transform: translate(0, 0px); transform: translate(0, 0px); }    
    }

    #dot-1, #dot-2, #dot-3 {
      animation: pulse 2s ease-in-out infinite;
      -webkit-animation: pulse 2s ease-in-out infinite;
      -webkit-transform-origin: center; -ms-transform-origin: center; transform-origin: center; transform-box: fill-box;
    }

    #dot-1 { animation-delay: 1s; }
    #dot-2 { animation-delay: 1.3s; }
    #dot-3 { animation-delay: 1.8s; }

    #bar-1 { animation-delay: 1s; }
    #bar-2 { animation-delay: 1.3s; }
    #bar-3 { animation-delay: 1.8s; }

    #cursor {
      animation-duration: 3s; 
      animation-name: cursor_moving; 
      animation-iteration-count: infinite; 
      animation-timing-function: ease-in-out;
    }

    #box-1 {
      animation: box-1 2s ease-in-out infinite;
      -webkit-animation: box-1 2s ease-in-out infinite;
      -webkit-transform-origin: center; -ms-transform-origin: center; transform-origin: center; transform-box: fill-box;
    }

    #box-2 {
      animation: box-2 2s ease-in-out infinite;
      -webkit-animation: box-2 2s ease-in-out infinite;
      -webkit-transform-origin: center; -ms-transform-origin: center; transform-origin: center; transform-box: fill-box;
    }

  </style>
  <defs>
    <filter id="Path_17" x="0" y="0" width="259" height="166.49" filterUnits="userSpaceOnUse">
      <feOffset dy="7" input="SourceAlpha"/>
      <feGaussianBlur stdDeviation="7" result="blur"/>
      <feFlood flood-color="#3e3789" flood-opacity="0.522"/>
      <feComposite operator="in" in2="blur"/>
    </filter>
  </defs>
  <g id="paid-advertising" transform="translate(-756 -595)">
    <g transform="matrix(1, 0, 0, 1, 756, 595)" filter="url(#Path_17)">
      <path id="Path_17-2" data-name="Path 17" d="M0,0H217V124.49H0Z" transform="translate(21 14)" fill="#fff"/>
    </g>
    <g id="wew" transform="translate(763 602)">
      <g id="Group_1" data-name="Group 1">
        <path id="Path_1" data-name="Path 1" d="M228.962,13.186V125.308a6.252,6.252,0,0,1-6.3,6.187H22.278A6.248,6.248,0,0,1,16,125.308V13.186A6.248,6.248,0,0,1,22.278,7H222.666A6.252,6.252,0,0,1,228.962,13.186Z" fill="#3e3789"/>
        <path id="Path_2" data-name="Path 2" d="M231,14.285V22H14V14.285C14,10.266,16.874,7,20.4,7H224.585C228.126,7,231,10.266,231,14.285Z" fill="#fff"/>
        <g id="dot-3">
          <path id="Path_3" data-name="Path 3" d="M50.935,18.227a3.621,3.621,0,1,0-3.621-3.621A3.621,3.621,0,0,0,50.935,18.227Z" fill="#ffb700"/>
        </g>
        <g id="dot-2">
          <path id="Path_4" data-name="Path 4" d="M39.345,18.227a3.621,3.621,0,1,0-3.621-3.621A3.621,3.621,0,0,0,39.345,18.227Z" fill="#e2209e"/>
        </g>
        <g id="dot-1">
          <path id="Path_5" data-name="Path 5" d="M27.772,18.227a3.621,3.621,0,1,0-3.621-3.621A3.621,3.621,0,0,0,27.772,18.227Z" fill="#5e1dbb"/>
        </g>
        <path id="Path_6" data-name="Path 6" d="M81,50H29V98H81Z" fill="#b10073"/>
        <g id="box-3">
          <path id="Path_7" data-name="Path 7" d="M227.277,131H191.723c-.95,0-1.723-.482-1.723-1.075v-25.85c0-.593.773-1.075,1.723-1.075h35.554c.95,0,1.723.482,1.723,1.075v25.85C228.991,130.518,228.227,131,227.277,131Z" fill="#5e1dbb"/>
        </g>
        <g id="box-1">
          <path id="Path_8" data-name="Path 8" d="M211,96H198v16h13Z" fill="#ffb700"/>
        </g>
        <g id="box-2">
          <path id="Path_9" data-name="Path 9" d="M220.788,107.312H205.842v14.946h14.946Z" fill="#9364ed"/>
        </g>
        <path id="Path_10" data-name="Path 10" d="M34.485,82V75.836h3.2c3.381,0,5.313-1.794,5.313-5.152,0-2.967-1.449-4.922-5.2-4.922H31.863V82Zm0-13.846h2.783c2.277,0,3.013.667,3.013,2.576,0,2.162-1.058,2.737-3.036,2.737h-2.76Zm15.629,14.1a4.328,4.328,0,0,0,3.933-2.116V82h2.484V70.454H54.047v1.863a4.229,4.229,0,0,0-3.91-2.116c-3.2,0-5.405,2.461-5.405,6.026S46.963,82.253,50.114,82.253ZM50.689,80a3.446,3.446,0,0,1-3.427-3.772c0-2.231,1.4-3.795,3.427-3.795,1.932,0,3.381,1.518,3.381,3.795S52.621,80,50.689,80ZM60.976,68.453a1.537,1.537,0,0,0,1.564-1.564,1.578,1.578,0,0,0-3.151,0A1.542,1.542,0,0,0,60.976,68.453ZM62.218,82V70.454H59.711V82Zm7.932.253a4.328,4.328,0,0,0,3.933-2.116V82h2.484V65.141H74.083v7.176a4.229,4.229,0,0,0-3.91-2.116c-3.2,0-5.4,2.461-5.4,6.026S67,82.253,70.15,82.253ZM70.725,80A3.446,3.446,0,0,1,67.3,76.227c0-2.231,1.4-3.795,3.427-3.795,1.932,0,3.381,1.518,3.381,3.795S72.657,80,70.725,80ZM98.3,82,92.385,65.762H89.372L83.461,82h2.783l1.311-3.7H94.2L95.513,82Zm-4.922-6.1H88.383l2.484-7.291Zm11.32,6.348a4.328,4.328,0,0,0,3.933-2.116V82h2.484V65.141h-2.484v7.176a4.229,4.229,0,0,0-3.91-2.116c-3.2,0-5.4,2.461-5.4,6.026S101.543,82.253,104.694,82.253ZM105.269,80a3.446,3.446,0,0,1-3.427-3.772c0-2.231,1.4-3.795,3.427-3.795,1.932,0,3.381,1.518,3.381,3.795S107.2,80,105.269,80Zm13.53-.621-3.174-8.924h-2.76L117.465,82H120.2l4.416-11.546h-2.737Zm18.3-3.151c0-3.611-2.323-6.026-5.75-6.026a5.773,5.773,0,0,0-5.98,6.026c0,3.542,2.415,6.026,6.233,6.026a5.757,5.757,0,0,0,5.244-2.6l-2.07-1.127a3.515,3.515,0,0,1-3.128,1.541,3.439,3.439,0,0,1-3.726-2.921h9.108C137.051,76.848,137.1,76.526,137.1,76.227Zm-5.7-3.91a3.192,3.192,0,0,1,3.266,2.9H127.92A3.413,3.413,0,0,1,131.393,72.317ZM141.95,82V76.549c0-2.162,1.2-3.818,3.174-3.818a7.912,7.912,0,0,1,1.058.069l.023-2.576a3.726,3.726,0,0,0-.506-.023,3.933,3.933,0,0,0-3.772,2.3V70.454h-2.461V82Zm12.67-2.254a4.382,4.382,0,0,1-1.495.253c-1.15,0-1.541-.529-1.541-1.886V72.639h3.036V70.454h-3.036V67.418H149.1v3.036h-2v2.185h2v5.773c0,2.139.759,3.795,3.565,3.795a5.87,5.87,0,0,0,1.978-.3Zm3.7-11.293a1.537,1.537,0,0,0,1.564-1.564,1.578,1.578,0,0,0-3.151,0A1.542,1.542,0,0,0,158.321,68.453ZM159.563,82V70.454h-2.507V82Zm7.426.253c2.99,0,4.554-1.242,4.554-3.68,0-2.323-1.587-3.036-4.255-3.473-1.7-.3-2.461-.667-2.461-1.426,0-.943.805-1.357,2.024-1.357a2.48,2.48,0,0,1,2.438,1.288l2.047-1.127a4.86,4.86,0,0,0-4.554-2.277c-2.392,0-4.416,1.081-4.416,3.565,0,2.116,1.656,2.944,4.094,3.381,2.07.345,2.576.736,2.576,1.541,0,1.035-.621,1.472-2,1.472a3.358,3.358,0,0,1-3.174-1.817L161.814,79.4C162.573,81.149,164.367,82.253,166.989,82.253Zm8.156-13.8a1.537,1.537,0,0,0,1.564-1.564,1.578,1.578,0,0,0-3.151,0A1.542,1.542,0,0,0,175.145,68.453ZM176.387,82V70.454H173.88V82Zm5.724,0V75.882c0-1.955,1.173-3.473,3.036-3.473,1.679,0,2.53.966,2.53,3.128V82h2.461V75.123c0-3.266-1.541-4.922-4.232-4.922a4.123,4.123,0,0,0-3.818,2.07V70.454h-2.461V82Zm16.237,4.761c3.611,0,5.819-2.116,5.819-5.773V70.454h-2.484v1.771a4.277,4.277,0,0,0-3.91-2.024c-3.2,0-5.4,2.415-5.4,5.865,0,3.473,2.231,5.911,5.382,5.911a4.372,4.372,0,0,0,3.933-2.047v1.311c0,2.231-1.2,3.358-3.4,3.358a3.163,3.163,0,0,1-3.036-1.564l-2.185,1.035C194.07,85.933,195.979,86.761,198.348,86.761Zm-.023-6.992a3.681,3.681,0,1,1,3.381-3.68A3.405,3.405,0,0,1,198.325,79.769Zm10.287,2.392a1.662,1.662,0,0,0,1.725-1.7,1.715,1.715,0,0,0-3.427,0A1.656,1.656,0,0,0,208.612,82.161Z" fill="#fff"/>
      </g>
      <g id="cursor">
        <path id="Path_11" data-name="Path 11" d="M76.584,118.68V93.522l18.734,16.807-7.135.082-.759.008.307.694,3,6.782-5.513,2.445-2.973-6.712-.307-.692-.516.553Z" fill="#fff" stroke="#fd521b" stroke-width="1"/>
        <path id="Path_12" data-name="Path 12" d="M74.535,90.237l-1.82-3.971,1.049-.447,1.82,3.971Z" fill="#fff" stroke="#fd521b" stroke-width="1"/>
        <path id="Path_13" data-name="Path 13" d="M80.013,90.245l-1.092-.414,1.645-4.189,1.092.414Z" fill="#fff" stroke="#fd521b" stroke-width="1"/>
        <path id="Path_14" data-name="Path 14" d="M82.926,93.591l-.464-1.048,4.107-1.836.463,1.048Z" fill="#fff" stroke="#fd521b" stroke-width="1"/>
        <path id="Path_15" data-name="Path 15" d="M71.833,93.779l-4.18-1.58.4-1.007,4.18,1.58Z" fill="#fff" stroke="#fd521b" stroke-width="1"/>
        <path id="Path_16" data-name="Path 16" d="M68.281,99.993l-.446-.985,4.109-1.749.446.985Z" fill="#fff" stroke="#fd521b" stroke-width="1"/>
      </g>
    </g>
  </g>
</svg>
